X: 27152
T: Miss McLeod's
R: reel
M: 4/4
K: Gmajor
G2gf efge|dBBA BcdB|g3g efge|agfe dc'ba|
(3gag fg efge|dBBA Bcdf|egfa gbaf|gdBd cAFA:|
(3DEG BG DGBA|B3c BAGE|(3DEG BG cGBG|AFDF AcBA|
(3DEG BG DGBA|B3c Bcdf|egfa gbaf|gdBd cAFA:|

